public/logos/EZ.svg

<?xml version="1.0" encoding="UTF-8"?>
<svg xmlns="http://www.w3.org/2000/svg" xmlns:xlink="http://www.w3.org/1999/xlink" width="176pt" height="53pt" viewBox="0 0 176 53" version="1.1">
<g id="surface1">
<path style=" stroke:none;fill-rule:nonzero;fill:rgb(13.729858%,12.159729%,12.548828%);fill-opacity:1;" d="M 18.761719 53 C 18.042969 52.878906 17.332031 52.753906 16.613281 52.640625 C 13.675781 52.179688 10.902344 51.273438 8.410156 49.597656 C 7.070312 48.699219 5.082031 46.828125 4.28125 45.34375 C 6.789062 42.980469 9.308594 40.605469 11.890625 38.171875 C 11.996094 38.355469 12.074219 38.464844 12.128906 38.585938 C 13.382812 41.363281 15.453125 43.183594 18.429688 43.902344 C 21.324219 44.597656 24.210938 44.523438 27.042969 43.59375 C 28.902344 42.980469 30.363281 41.828125 31.324219 40.105469 C 32.921875 37.238281 31.988281 34.210938 29.070312 32.71875 C 27.777344 32.058594 26.390625 31.660156 25.003906 31.273438 C 23.589844 30.878906 22.171875 30.511719 20.691406 30.117188 C 20.933594 29.617188 21.332031 29.324219 21.664062 28.992188 C 24.808594 30.3125 28.621094 27.824219 27.601562 23.632812 C 28.191406 23.042969 28.789062 22.441406 29.4375 21.792969 C 29.929688 21.949219 30.433594 22.097656 30.925781 22.273438 C 33.066406 23.03125 35.15625 23.898438 36.964844 25.316406 C 40.15625 27.804688 41.875 31.078125 42.289062 35.097656 C 42.53125 37.449219 42.390625 39.746094 41.625 41.976562 C 40.070312 46.503906 37.046875 49.644531 32.566406 51.363281 C 30.4375 52.179688 28.21875 52.617188 25.957031 52.835938 C 25.734375 52.859375 25.515625 52.945312 25.296875 53 C 23.117188 53 20.9375 53 18.761719 53 "/>
<path style=" stroke:none;fill-rule:nonzero;fill:rgb(13.729858%,12.159729%,12.548828%);fill-opacity:1;" d="M 23.882812 -0.00390625 C 24.160156 0.0546875 24.4375 0.136719 24.71875 0.160156 C 27.617188 0.402344 30.417969 1.015625 33.015625 2.371094 C 35.789062 3.816406 37.855469 5.964844 39.3125 8.820312 C 36.792969 11.183594 34.289062 13.535156 31.757812 15.914062 C 31.398438 15.949219 31.027344 15.984375 30.613281 16.019531 C 30.539062 15.738281 30.492188 15.511719 30.421875 15.292969 C 30.128906 14.402344 29.902344 13.480469 29.519531 12.628906 C 28.53125 10.429688 26.703125 9.277344 24.40625 8.863281 C 21.859375 8.40625 19.304688 8.410156 16.8125 9.191406 C 16.0625 9.421875 15.34375 9.789062 14.65625 10.175781 C 12.007812 11.671875 11.746094 15.34375 14.769531 17.15625 C 15.746094 17.742188 16.816406 18.21875 17.902344 18.550781 C 20.402344 19.320312 22.9375 19.964844 25.457031 20.660156 C 25.679688 20.722656 25.90625 20.789062 26.207031 20.875 C 26.089844 21.023438 26.015625 21.132812 25.925781 21.222656 C 25.824219 21.328125 25.707031 21.417969 25.578125 21.527344 C 24.75 21.335938 23.921875 21.097656 23.066406 21.359375 C 22.925781 21.402344 22.769531 21.410156 22.644531 21.476562 C 22.058594 21.78125 21.441406 21.917969 20.785156 21.925781 C 20.675781 21.925781 20.566406 22 20.351562 22.082031 C 20.28125 22.523438 20.199219 23.003906 20.089844 23.65625 C 19.515625 24.601562 19.535156 25.789062 19.789062 27.070312 C 19.011719 27.777344 18.210938 28.503906 17.398438 29.242188 C 15.757812 28.875 14.210938 28.320312 12.699219 27.683594 C 11.589844 27.21875 10.484375 26.707031 9.464844 26.074219 C 5.839844 23.835938 3.527344 20.636719 2.925781 16.386719 C 2.070312 10.363281 5.039062 5.117188 9.925781 2.488281 C 12.023438 1.363281 14.265625 0.691406 16.613281 0.359375 C 17.226562 0.273438 17.84375 0.226562 18.453125 0.148438 C 18.617188 0.125 18.777344 0.046875 18.9375 -0.00390625 C 20.585938 -0.00390625 22.234375 -0.00390625 23.882812 -0.00390625 "/>
<path style=" stroke:none;fill-rule:nonzero;fill:rgb(13.729858%,12.159729%,12.548828%);fill-opacity:1;" d="M 165.632812 26.964844 C 166.652344 26.992188 167.578125 27 168.519531 26.90625 C 170.28125 26.734375 170.632812 25.601562 170.640625 24.410156 C 170.644531 24.175781 170.59375 23.941406 170.554688 23.710938 C 170.410156 22.863281 169.894531 22.339844 169.074219 22.15625 C 167.949219 21.90625 166.8125 22.042969 165.632812 22.019531 C 165.632812 23.695312 165.632812 25.269531 165.632812 26.964844 Z M 176 37.804688 C 175.296875 37.785156 174.59375 37.757812 173.890625 37.742188 C 173.539062 37.734375 173.191406 37.742188 172.796875 37.742188 C 172.441406 37.03125 172.101562 36.355469 171.761719 35.671875 C 171.226562 34.59375 170.691406 33.515625 170.164062 32.429688 C 169.453125 30.984375 168.316406 30.273438 166.6875 30.378906 C 166.367188 30.398438 166.042969 30.382812 165.617188 30.382812 C 165.546875 31.195312 165.59375 31.980469 165.585938 32.761719 C 165.578125 33.585938 165.585938 34.410156 165.585938 35.234375 C 165.585938 36.023438 165.585938 36.816406 165.585938 37.585938 C 164.855469 37.78125 161.507812 37.796875 160.679688 37.617188 C 160.679688 31.253906 160.679688 24.882812 160.679688 18.457031 C 160.914062 18.4375 161.140625 18.40625 161.367188 18.40625 C 163.722656 18.40625 166.074219 18.398438 168.429688 18.410156 C 169.605469 18.414062 170.765625 18.550781 171.914062 18.84375 C 174.664062 19.550781 175.730469 21.488281 175.574219 24.191406 C 175.460938 26.203125 174.453125 27.609375 172.59375 28.398438 C 172.457031 28.457031 172.332031 28.53125 172.203125 28.601562 C 172.183594 28.613281 172.175781 28.652344 172.136719 28.726562 C 173.6875 29.289062 174.472656 30.585938 175.195312 31.941406 C 175.453125 32.429688 175.730469 32.90625 176 33.390625 C 176 34.859375 176 36.332031 176 37.804688 "/>
<path style=" stroke:none;fill-rule:nonzero;fill:rgb(13.729858%,12.159729%,12.548828%);fill-opacity:1;" d="M 114.445312 37.613281 C 113.816406 37.769531 110.109375 37.808594 108.917969 37.660156 C 106.65625 33.40625 104.375 29.105469 102.089844 24.808594 C 102.046875 24.816406 102 24.828125 101.957031 24.839844 C 101.957031 29.089844 101.957031 33.34375 101.957031 37.570312 C 101.238281 37.789062 98.042969 37.804688 97.242188 37.609375 C 97.242188 31.265625 97.242188 24.917969 97.242188 18.570312 C 97.84375 18.386719 101.195312 18.332031 102.765625 18.488281 C 105.023438 22.738281 107.3125 27.039062 109.597656 31.34375 C 109.648438 31.335938 109.703125 31.328125 109.757812 31.320312 C 109.761719 30.5 109.769531 29.675781 109.773438 28.855469 C 109.777344 28.003906 109.773438 27.148438 109.773438 26.296875 C 109.773438 25.414062 109.773438 24.53125 109.773438 23.648438 C 109.773438 22.792969 109.773438 21.941406 109.773438 21.085938 C 109.773438 20.238281 109.773438 19.394531 109.773438 18.570312 C 110.492188 18.390625 113.394531 18.359375 114.445312 18.507812 C 114.445312 24.871094 114.445312 31.242188 114.445312 37.613281 "/>
<path style=" stroke:none;fill-rule:nonzero;fill:rgb(13.729858%,12.159729%,12.548828%);fill-opacity:1;" d="M 75.882812 18.394531 C 77.53125 18.394531 79.082031 18.394531 80.730469 18.394531 C 80.742188 18.734375 80.765625 19.046875 80.765625 19.359375 C 80.769531 22.832031 80.757812 26.304688 80.773438 29.777344 C 80.777344 30.449219 80.824219 31.128906 80.941406 31.789062 C 81.273438 33.621094 82.382812 34.480469 84.238281 34.390625 C 84.558594 34.375 84.882812 34.332031 85.199219 34.257812 C 86.121094 34.039062 86.832031 33.507812 87.078125 32.582031 C 87.292969 31.765625 87.453125 30.910156 87.460938 30.070312 C 87.503906 26.539062 87.480469 23.007812 87.480469 19.476562 C 87.480469 19.15625 87.480469 18.832031 87.480469 18.523438 C 88.105469 18.332031 90.988281 18.28125 92.371094 18.433594 C 92.390625 18.644531 92.425781 18.871094 92.425781 19.09375 C 92.429688 22.683594 92.449219 26.277344 92.414062 29.863281 C 92.402344 30.828125 92.308594 31.808594 92.105469 32.746094 C 91.511719 35.515625 89.714844 37.132812 86.996094 37.722656 C 85.078125 38.140625 83.132812 38.132812 81.214844 37.71875 C 78.285156 37.082031 76.480469 35.160156 76.015625 32.195312 C 75.90625 31.503906 75.835938 30.792969 75.832031 30.089844 C 75.8125 26.441406 75.820312 22.792969 75.824219 19.144531 C 75.824219 18.894531 75.859375 18.644531 75.882812 18.394531 "/>
<path style=" stroke:none;fill-rule:nonzero;fill:rgb(13.729858%,12.159729%,12.548828%);fill-opacity:1;" d="M 140.71875 30.683594 C 139.84375 28.128906 139.003906 25.667969 138.144531 23.160156 C 137.691406 23.933594 135.617188 30.003906 135.570312 30.683594 C 137.234375 30.683594 138.902344 30.683594 140.71875 30.683594 Z M 135.09375 18.554688 C 137.074219 18.554688 139.011719 18.554688 141.054688 18.554688 C 143.398438 24.894531 145.753906 31.253906 148.109375 37.613281 C 147.492188 37.832031 144.792969 37.890625 143.179688 37.726562 C 142.992188 37.191406 142.792969 36.617188 142.59375 36.039062 C 142.398438 35.484375 142.207031 34.929688 142.019531 34.390625 C 141.351562 34.242188 135.621094 34.195312 134.171875 34.332031 C 133.785156 35.421875 133.382812 36.550781 132.976562 37.710938 C 132.144531 37.875 131.324219 37.769531 130.511719 37.789062 C 129.71875 37.808594 128.925781 37.792969 128 37.792969 C 129.148438 34.511719 130.371094 31.347656 131.539062 28.164062 C 132.714844 24.96875 133.902344 21.773438 135.09375 18.554688 "/>
<path style=" stroke:none;fill-rule:nonzero;fill:rgb(13.729858%,12.159729%,12.548828%);fill-opacity:1;" d="M 70.171875 18.957031 C 70.171875 20.304688 70.171875 21.566406 70.171875 22.917969 C 69.804688 22.789062 69.488281 22.683594 69.175781 22.566406 C 67.484375 21.925781 65.75 21.492188 63.929688 21.566406 C 63.320312 21.589844 62.703125 21.710938 62.113281 21.867188 C 61.789062 21.957031 61.464844 22.167969 61.226562 22.410156 C 60.480469 23.175781 60.664062 24.488281 61.625 24.953125 C 62.277344 25.265625 63.011719 25.429688 63.71875 25.613281 C 65.109375 25.976562 66.507812 26.308594 67.902344 26.652344 C 67.988281 26.675781 68.070312 26.707031 68.152344 26.742188 C 70.476562 27.695312 71.445312 29.117188 71.449219 31.628906 C 71.453125 32.183594 71.441406 32.753906 71.339844 33.296875 C 70.886719 35.753906 69.390625 37.304688 66.355469 37.796875 C 62.996094 38.347656 59.742188 37.832031 56.542969 36.652344 C 56.335938 35.992188 56.464844 35.316406 56.441406 34.648438 C 56.417969 33.976562 56.4375 33.300781 56.4375 32.539062 C 56.6875 32.625 56.871094 32.671875 57.035156 32.753906 C 58.707031 33.582031 60.453125 34.171875 62.316406 34.390625 C 63.230469 34.496094 64.140625 34.46875 65.03125 34.238281 C 66.179688 33.9375 66.722656 33.21875 66.6875 32.164062 C 66.664062 31.386719 66.246094 30.882812 65.585938 30.605469 C 64.996094 30.355469 64.363281 30.1875 63.742188 30.027344 C 62.746094 29.773438 61.730469 29.582031 60.742188 29.304688 C 60.179688 29.152344 59.636719 28.910156 59.105469 28.660156 C 57.050781 27.683594 56.25 25.957031 56.289062 23.78125 C 56.304688 22.929688 56.433594 22.082031 56.804688 21.289062 C 57.664062 19.480469 59.195312 18.601562 61.070312 18.207031 C 62.496094 17.910156 63.945312 17.914062 65.375 18.070312 C 66.804688 18.226562 68.21875 18.53125 69.636719 18.777344 C 69.804688 18.804688 69.964844 18.886719 70.171875 18.957031 "/>
<path style=" stroke:none;fill-rule:nonzero;fill:rgb(13.729858%,12.159729%,12.548828%);fill-opacity:1;" d="M 14.980469 32.03125 C 14.902344 30.277344 15.652344 29.546875 17.34375 29.882812 C 18.246094 29.019531 19.199219 28.113281 20.136719 27.214844 C 19.871094 25.925781 19.835938 24.71875 20.398438 23.539062 C 20.550781 23.214844 20.492188 22.792969 20.53125 22.421875 C 20.578125 22.375 20.613281 22.296875 20.65625 22.296875 C 21.507812 22.226562 22.300781 21.914062 23.121094 21.738281 C 23.964844 21.5625 24.8125 21.59375 25.617188 22.039062 C 26.632812 21.09375 27.621094 20.179688 28.582031 19.289062 C 28.492188 17.652344 29.273438 16.910156 30.871094 17.128906 C 31.207031 16.832031 31.589844 16.515625 31.953125 16.179688 C 35.554688 12.835938 39.15625 9.488281 42.757812 6.144531 C 43.578125 5.382812 44.386719 4.609375 45.226562 3.871094 C 45.550781 3.585938 45.941406 3.367188 46.320312 3.152344 C 46.59375 3 46.886719 2.996094 47.132812 3.292969 C 47.292969 3.675781 47.152344 4.039062 46.921875 4.347656 C 46.589844 4.792969 46.234375 5.230469 45.835938 5.613281 C 41.332031 9.890625 36.820312 14.15625 32.308594 18.421875 C 32.289062 18.445312 32.277344 18.46875 32.214844 18.554688 C 32.199219 19.160156 32.242188 19.847656 31.722656 20.390625 C 31.207031 20.9375 30.59375 20.941406 29.878906 20.730469 C 28.945312 21.605469 28.007812 22.484375 27.039062 23.394531 C 27.542969 25.058594 27.433594 26.617188 26.109375 27.871094 C 24.800781 29.113281 23.277344 29.316406 21.578125 28.585938 C 20.59375 29.492188 19.601562 30.40625 18.640625 31.292969 C 18.519531 33.164062 18.117188 33.539062 16.191406 33.570312 C 14.667969 34.980469 13.109375 36.414062 11.558594 37.855469 C 8.386719 40.796875 5.21875 43.742188 2.042969 46.675781 C 1.761719 46.933594 1.445312 47.160156 1.125 47.363281 C 0.820312 47.554688 0.480469 47.652344 0.105469 47.402344 C -0.128906 46.929688 0.0625 46.496094 0.34375 46.113281 C 0.605469 45.761719 0.917969 45.441406 1.234375 45.136719 C 5.570312 41.027344 9.910156 36.921875 14.246094 32.8125 C 14.480469 32.589844 14.691406 32.339844 14.980469 32.03125 "/>
<path style=" stroke:none;fill-rule:nonzero;fill:rgb(13.729858%,12.159729%,12.548828%);fill-opacity:1;" d="M 150.800781 18.46875 C 152.464844 18.46875 154.039062 18.46875 155.660156 18.46875 C 155.660156 24.886719 155.660156 31.253906 155.660156 37.683594 C 154.042969 37.683594 152.445312 37.683594 150.800781 37.683594 C 150.800781 31.269531 150.800781 24.902344 150.800781 18.46875 "/>
<path style=" stroke:none;fill-rule:nonzero;fill:rgb(13.729858%,12.159729%,12.548828%);fill-opacity:1;" d="M 2.804688 42.824219 C 1.765625 40.449219 1.15625 38.089844 0.875 35.542969 C 4.238281 35.210938 7.523438 34.886719 10.871094 34.554688 C 10.933594 34.875 10.984375 35.121094 11.039062 35.398438 C 8.316406 37.851562 5.617188 40.285156 2.804688 42.824219 "/>
<path style=" stroke:none;fill-rule:nonzero;fill:rgb(13.729858%,12.159729%,12.548828%);fill-opacity:1;" d="M 118.4375 28.335938 C 121.09375 28.335938 123.730469 28.335938 126.476562 28.335938 C 126.476562 29.527344 126.503906 30.714844 126.449219 31.957031 C 123.761719 31.957031 121.128906 31.957031 118.4375 31.957031 C 118.4375 30.753906 118.4375 29.570312 118.4375 28.335938 "/>
<path style=" stroke:none;fill-rule:nonzero;fill:rgb(13.729858%,12.159729%,12.548828%);fill-opacity:1;" d="M 40.277344 11.492188 C 40.664062 12.878906 40.882812 14.203125 40.855469 15.652344 C 39.144531 15.703125 37.480469 15.75 35.808594 15.796875 C 36.082031 15.3125 38.828125 12.664062 40.277344 11.492188 "/>
</g>
</svg>

<svg xmlns="http://www.w3.org/2000/svg" width="176pt" height="53pt" viewBox="0 0 176 53"><path d="M18.762 53c-.719-.121-1.43-.246-2.149-.36-2.937-.46-5.71-1.367-8.203-3.042-1.34-.899-3.328-2.77-4.129-4.254l7.61-7.172c.105.183.183.293.238.414 1.254 2.777 3.324 4.598 6.3 5.316 2.895.696 5.782.621 8.614-.308 1.86-.614 3.32-1.766 4.281-3.489 1.598-2.867.664-5.894-2.254-7.386-1.293-.66-2.68-1.059-4.066-1.446-1.414-.394-2.832-.761-4.313-1.156.243-.5.641-.793.973-1.125 3.145 1.32 6.957-1.168 5.938-5.36.59-.589 1.187-1.19 1.835-1.839.493.156.997.305 1.489.48 2.14.758 4.23 1.625 6.039 3.043 3.191 2.489 4.91 5.762 5.324 9.782.242 2.351.102 4.648-.664 6.879-1.555 4.527-4.578 7.668-9.059 9.386-2.129.817-4.347 1.254-6.609 1.473-.223.023-.441.11-.66.164zM23.883-.004c.277.059.555.14.836.164 2.898.242 5.699.856 8.297 2.211 2.773 1.445 4.84 3.594 6.297 6.45-2.52 2.363-5.024 4.714-7.555 7.093-.36.035-.73.07-1.145.106-.074-.282-.12-.508-.191-.727-.293-.89-.52-1.813-.902-2.664-.989-2.2-2.817-3.352-5.114-3.766-2.547-.457-5.101-.453-7.593.328-.75.23-1.47.598-2.157.985-2.648 1.496-2.91 5.168.114 6.98a14.2 14.2 0 0 0 3.132 1.395c2.5.77 5.035 1.414 7.555 2.11.223.062.45.128.75.214-.117.148-.191.258-.281.348-.102.105-.219.195-.348.304-.828-.191-1.656-.43-2.512-.168-.14.043-.296.051-.421.118a4.06 4.06 0 0 1-1.86.449c-.11 0-.219.074-.433.156-.07.441-.153.922-.262 1.574-.574.946-.555 2.133-.3 3.414l-2.392 2.172c-1.64-.367-3.187-.922-4.699-1.558-1.11-.465-2.215-.977-3.234-1.61-3.625-2.238-5.938-5.437-6.54-9.687-.855-6.024 2.114-11.27 7-13.899C12.024 1.363 14.266.691 16.614.36c.614-.086 1.23-.132 1.84-.21.164-.024.324-.102.485-.153zM165.633 26.965c1.02.027 1.945.035 2.887-.059 1.761-.172 2.113-1.304 2.12-2.496.005-.234-.046-.469-.085-.7-.145-.847-.66-1.37-1.48-1.554-1.126-.25-2.262-.113-3.442-.136zM176 37.805c-.703-.02-1.406-.047-2.11-.063-.35-.008-.699 0-1.093 0-.356-.71-.695-1.387-1.035-2.07a416 416 0 0 1-1.598-3.242c-.71-1.446-1.848-2.157-3.476-2.051-.32.02-.645.004-1.07.004-.071.812-.024 1.597-.032 2.379-.008.824 0 1.648 0 2.472v2.352c-.73.195-4.078.21-4.906.031v-19.16c.234-.02.46-.05.687-.05 2.356 0 4.707-.009 7.063.003 1.175.004 2.336.14 3.484.434 2.75.707 3.816 2.644 3.66 5.347-.113 2.012-1.12 3.418-2.98 4.207-.137.059-.262.133-.39.204-.02.011-.028.05-.067.125 1.55.562 2.336 1.859 3.058 3.214.258.489.535.965.805 1.45zM114.445 37.613c-.629.157-4.336.196-5.527.047-2.262-4.254-4.543-8.555-6.828-12.851-.043.007-.09.02-.133.03V37.57c-.719.22-3.914.235-4.715.04V18.57c.602-.183 3.953-.238 5.524-.082 2.257 4.25 4.546 8.551 6.832 12.856l.16-.024c.004-.82.012-1.644.015-2.465.004-.851 0-1.707 0-2.558V18.57c.72-.18 3.622-.21 4.672-.062zM75.883 18.395h4.847c.012.34.036.652.036.964.004 3.473-.008 6.946.007 10.418.004.672.051 1.352.168 2.012.332 1.832 1.442 2.691 3.297 2.602.32-.016.645-.059.961-.133.922-.219 1.633-.75 1.88-1.676.214-.816.374-1.672.382-2.512.043-3.53.02-7.062.02-10.593v-.954c.624-.191 3.507-.242 4.89-.09.02.212.055.438.055.66.004 3.59.023 7.184-.012 10.77a14.5 14.5 0 0 1-.309 2.883c-.593 2.77-2.39 4.387-5.109 4.977-1.918.418-3.863.41-5.781-.004-2.93-.637-4.735-2.559-5.2-5.524-.109-.691-.18-1.402-.183-2.105-.02-3.649-.012-7.297-.008-10.945 0-.25.035-.5.059-.75M140.719 30.684l-2.574-7.524c-.454.774-2.528 6.844-2.575 7.524zm-5.625-12.13h5.96c2.344 6.34 4.7 12.7 7.055 19.06-.617.218-3.316.277-4.93.113-.187-.536-.386-1.11-.585-1.688-.196-.555-.387-1.11-.574-1.648-.668-.149-6.399-.196-7.848-.059-.387 1.09-.79 2.219-1.195 3.379-.832.164-1.653.059-2.465.078-.793.02-1.586.004-2.512.004 1.148-3.281 2.371-6.445 3.54-9.629 1.175-3.195 2.362-6.39 3.554-9.61M70.172 18.957v3.961c-.367-.129-.684-.234-.996-.352-1.692-.64-3.426-1.074-5.246-1-.61.024-1.227.145-1.817.301-.324.09-.648.301-.886.543-.747.766-.563 2.078.398 2.543.652.313 1.387.477 2.094.66 1.39.364 2.789.696 4.183 1.04q.128.035.25.09c2.325.952 3.293 2.374 3.297 4.886.004.555-.008 1.125-.11 1.668-.452 2.457-1.948 4.008-4.984 4.5-3.359.55-6.613.035-9.812-1.145-.207-.66-.078-1.336-.102-2.004-.023-.671-.004-1.347-.004-2.109.25.086.434.133.598.215 1.672.828 3.418 1.418 5.281 1.637.914.105 1.825.078 2.715-.153 1.149-.3 1.692-1.02 1.656-2.074-.023-.777-.44-1.281-1.101-1.559-.59-.25-1.223-.418-1.844-.578-.996-.254-2.012-.445-3-.722-.562-.153-1.105-.395-1.637-.645-2.054-.976-2.855-2.703-2.816-4.879.016-.851.145-1.699.516-2.492.86-1.809 2.39-2.687 4.265-3.082 1.426-.297 2.875-.293 4.305-.137 1.43.157 2.844.461 4.262.707.168.028.328.11.535.18" style="stroke:none;fill-rule:nonzero;fill:#231f20;fill-opacity:1"/><path d="M14.98 32.031c-.078-1.754.672-2.484 2.364-2.148.902-.863 1.855-1.77 2.793-2.668-.266-1.29-.301-2.496.261-3.676.153-.324.094-.746.133-1.117.047-.047.082-.125.125-.125.852-.07 1.645-.383 2.465-.559.844-.175 1.692-.144 2.496.301q1.524-1.416 2.965-2.75c-.09-1.637.691-2.379 2.29-2.16.335-.297.718-.613 1.081-.95q5.402-5.016 10.805-10.034c.82-.762 1.629-1.536 2.469-2.274.324-.285.714-.504 1.093-.719.274-.152.567-.156.813.141.16.383.02.746-.211 1.055-.332.445-.688.882-1.086 1.265-4.504 4.278-9.016 8.543-13.527 12.809-.02.023-.032.047-.094.133-.016.605.027 1.293-.492 1.836-.516.547-1.13.55-1.844.34-.934.874-1.871 1.753-2.84 2.664.504 1.664.395 3.222-.93 4.476-1.308 1.242-2.832 1.445-4.53.715-.985.906-1.977 1.82-2.938 2.707-.121 1.871-.524 2.246-2.45 2.277-1.523 1.41-3.082 2.844-4.632 4.285-3.172 2.942-6.34 5.887-9.516 8.82a6.5 6.5 0 0 1-.918.688c-.305.192-.645.29-1.02.04-.234-.473-.042-.907.239-1.29.261-.351.574-.672.89-.976 4.336-4.11 8.676-8.215 13.012-12.324.234-.223.445-.473.734-.782M150.8 18.469h4.86v19.215h-4.86z" style="stroke:none;fill-rule:nonzero;fill:#231f20;fill-opacity:1"/><path d="M2.805 42.824c-1.04-2.375-1.649-4.734-1.93-7.281 3.363-.332 6.648-.656 9.996-.988l.168.843c-2.723 2.454-5.422 4.887-8.234 7.426M118.438 28.336h8.039c0 1.191.027 2.379-.028 3.621h-8.011zM40.277 11.492c.387 1.387.606 2.711.578 4.16-1.71.051-3.375.098-5.046.145.273-.485 3.02-3.133 4.468-4.305" style="stroke:none;fill-rule:nonzero;fill:#231f20;fill-opacity:1"/></svg>
